!!!SOCIAL_FUNCTION:	war songs
!!!PDT:	1922
!!!OTL: No_74_Parade_of_Returning_Warriors.krn
!!!REG: Southwest
!!!LANG: Non-Tone
!!!LING_GROUP: Uto-Aztecan
**kern	**kern
*staff2	*staff1
=1-	=1-
*clefF4	*clefF4
*k[b-e-a-d-g-c-]	*k[b-e-a-d-g-c-]
*M2/4	*M2/4
4GG-/	8e-\L
.	8d-\J
4GG-/	8e-\L
.	16d-\L
.	16d-\JJ
=2	=2
4GG-/	8.e-\L
.	16a-\Jk
4GG-/	16a-\LK
.	8.e-\J
=3	=3
4GG-/	16e-\LL
.	16d-\J
.	8d-\J
4GG-/	8d-\L
.	8d-\J
=4	=4
2r	8d-\L
.	8d-\J
.	8d-\L
.	8B-\J
=5	=5
2r	16d-\LK
.	8.d-\J
.	16B-\LL
.	16G-\J
.	8G-\J
=6	=6
2r	16A-\LK
.	8.B-\J
.	16B-\LK
.	8.A-\J
=7	=7
2r	(8.G-\L
.	16D-\Jk)
.	4D-\
=8	=8
2r	8D-\L
.	8D-\J
.	8.D-\L
.	16e-\Jk
=9	=9
2r	12e-\L
.	12d-\
.	12e-\J
.	12e-\L
.	12d-\
.	12d-\J
=10	=10
2r	8.e-\L
.	16a-\Jk
.	16a-\LK
.	8.e-;\J
=11||	=11||
*M3/4	*M3/4
2.r	12e-\L
.	12d-\
.	12d-\J
.	8d-\L
.	8d-\J
.	4d-\
=12||	=12||
*M2/4	*M2/4
2r	4d-\
.	12d-\L
.	12B-\
.	12d-\J
=13	=13
2r	4d-\
.	12B-\L
.	12G-\
.	12G-\J
=14	=14
2r	16A-\LK
.	8.B-\J
.	16B-\LK
.	8.A-\J
=15	=15
2r	(8.G-\L
.	16D-\Jk)
.	4D-\
=16	=16
2r	8D-\L
.	8D-\J
.	4D-\
==:|!	==:|!
*-	*-
